X:895
T:Reel 895
L:1/8
M: 4/4
K: G Major
D|GBdge2dB|GBdg(3efgdg|BddBBddB|cegedcBc|GBdge2dB|GBdge2d2|cegedBge|dBABGFED|GBdgBdgb|afgd(3efgBd|BddBBddB|cegedcBc|GBdgBdgb|afgdcBAB|cegedBge|dBABGFED|.abc